X:1
T:Title
%%score ( 1 2 ) { 3 | ( 4 5 ) }
L:1/8
Q:1/4=98
M:4/4
K:Bb
V:1 treble nm="Grand Piano, Soprano"
V:2 treble 
V:3 bass nm="Choir Pad, In the Cleft of the Rock"
V:4 bass 
V:5 bass 
V:1
 [Fd]2 [Fd]>[Ec] [DB][DF][B,D][CE] | [DF]2 [DF]2 [EF]4 | [Ec]2 [Ec]>[DB] [EA][EF][EG][EF] | %3
w: By~John~Sylvester~Fearis * * * * * *|||
 [DB]2 [Fd]2 e2 c2 | [Fd]2 [Fd]>[Ec] [DB][DF][B,D][CE] | [DF]2 [FG]2 [FA]2 [FB][FG] | %6
w: |||
 [Fc]2 F>[FG] [FA]2 CC | [CG]4 [CF]2 z2 | [Fd]4- [Fd][DF][Ec][DB] | [FB]2 [FA]4 z2 | %10
w: ||||
 [Ae]4- [Ae][FA][Fd][Ec] | [DB]2 [DF]4 z2 | [Af]4- [Af][Ad][Ac][AB] | [GB]2 [Ge]4 [GB][Gc] | %14
w: ||||
 [Fd]2 [DF][DF] [Fd]3 [Ec] | [DB]8 |] %16
w: ||
V:2
 x8 | x8 | x8 | z4 F4 | x8 | x8 | x8 | x8 | x8 | x8 | x8 | x8 | x8 | x8 | x8 | x8 |] %16
V:3
 B,2 B,>B, B,B,F,F, | B,2 G,2 A,4 | A,2 A,>B, CA,A,A, | B,2 B,2 A,4 | B,2 B,>B, B,B,F,F, | %5
 B,2 D2 C2 B,B, | A,2 A,>A, C2 A,A, | B,4 A,2 z2 | B,B,B,B, B,2 z2 | E6 z2 | C6 z2 | B,6 z2 | %12
 D4- DFED | E2[K:bass] B,4 B,B, | B,2 B,B, B,3 A, | B,8 |] %16
V:4
 B,,2 B,,>B,, B,,B,,B,,B,, | B,,2 B,,2 C,4 | F,2 F,>F, F,F,F,F, | B,,2 B,,2 C,2 F,2 | %4
 B,,2 B,,>B,, B,,B,,B,,B,, | B,,2 B,,2 C,2 D,_D, | C,2 C,>C, C,2 C,C, | C,4 F,2 z2 | %8
 B,,B,,B,,B,, B,,2 z2 | F,F,F,F, F,F,G,F, | F,F,F,F, F,2 z2 | B,,B,,B,,B,, z D,F,B, | %12
 B,B,B,B, B,B,B,B, | E,2 E,4 E,E, | F,2 F,F, F,3 F, | B,,8 |] %16
V:5
 x8 | x8 | x8 | x8 | x8 | x8 | x8 | x8 | x8 | x8 | x8 | z4 B,,2 z2 | x8 | x8 | x8 | x8 |] %16

